build/img/footer/facebook.svg

<svg width="44" height="45" viewBox="0 0 44 45" fill="none" xmlns="http://www.w3.org/2000/svg">
<path d="M40.3333 22.7528C40.3333 12.6328 32.12 4.41943 22 4.41943C11.88 4.41943 3.66666 12.6328 3.66666 22.7528C3.66666 31.6261 9.97332 39.0144 18.3333 40.7194V28.2528H14.6667V22.7528H18.3333V18.1694C18.3333 14.6311 21.2117 11.7528 24.75 11.7528H29.3333V17.2528H25.6667C24.6583 17.2528 23.8333 18.0778 23.8333 19.0861V22.7528H29.3333V28.2528H23.8333V40.9944C33.0917 40.0778 40.3333 32.2678 40.3333 22.7528Z" fill="#FE8235"/>
</svg>

<svg width="44" height="45" fill="none" xmlns="http://www.w3.org/2000/svg"><path d="M40.333 22.753c0-10.12-8.213-18.334-18.333-18.334S3.667 12.633 3.667 22.753c0 8.873 6.306 16.261 14.666 17.966V28.253h-3.666v-5.5h3.666v-4.584a6.424 6.424 0 016.417-6.416h4.583v5.5h-3.666a1.839 1.839 0 00-1.834 1.833v3.667h5.5v5.5h-5.5v12.741c9.259-.916 16.5-8.726 16.5-18.241z" fill="#FE8235"/></svg>3.8333 18.0778 23.8333 19.0861V22.7528H29.3333V28.2528H23.8333V40.9944C33.0917 40.0778 40.3333 32.2678 40.3333 22.7528Z" fill="#FE8235"/>
</svg>
